ALTDEU
CUT[Nachtfahrt]
REG[Europa, Mitteleuropa, Deutschland]
TRD[]
FKT[]
SIG[A0073]
KEY[A0073   02  D 4/2]
MEL[1  3b3b44  5_.
    5  5544  3b_0
    3b  3b3b55  224
    4  3b3b22  1_. //]
BEM[]
MEL_SEM[3 0 2 0 2 0 0 0 -2 0 -2 0 0 0 4 0 -5 0 3 0 -2 0 -1 0 -2]
MEL_RAW[1  3b3b44  5
    5  5544  3b0
    3b  3b3b55  224
    4  3b3b22  1]
NO_REP[13b45
    543b0
    3b524
    43b21]
RTM[x  xxxx  x_.
    x  xxxx  x_x
    x  xxxx  xxx
    x  xxxx  x_.]
SCL_DEG[123b45]
SCL_SEM[2 1 2 2]

